tools/download-figma-icons/icons/outlined-medium/reset.svg

<svg width="24" height="24" viewBox="0 0 24 24" fill="none" xmlns="http://www.w3.org/2000/svg">
<path d="M12 1.5C9.5175 1.5 7.14 2.3775 5.25 3.9675V3C5.25 2.5875 4.9125 2.25 4.5 2.25C4.0875 2.25 3.75 2.5875 3.75 3V6C3.75 6.4125 4.0875 6.75 4.5 6.75H7.5C7.9125 6.75 8.25 6.4125 8.25 6C8.25 5.5875 7.9125 5.25 7.5 5.25H6.0525C7.695 3.8025 9.8025 3 12 3C16.965 3 21 7.035 21 12C21 16.965 16.965 21 12 21C7.035 21 3 16.965 3 12C3 11.5875 2.6625 11.25 2.25 11.25C1.8375 11.25 1.5 11.5875 1.5 12C1.5 17.79 6.21 22.5 12 22.5C17.79 22.5 22.5 17.79 22.5 12C22.5 6.21 17.79 1.5 12 1.5Z" fill="black"/>
<path d="M12 12.7501C12.24 12.7501 12.4725 12.6301 12.6075 12.4351L16.3575 7.18513C16.5975 6.84763 16.5225 6.38263 16.185 6.14263C15.8475 5.90263 15.3825 5.97763 15.1425 6.31513L11.6175 11.2501H7.5C7.0875 11.2501 6.75 11.5876 6.75 12.0001C6.75 12.4126 7.0875 12.7501 7.5 12.7501H12Z" fill="black"/>
</svg>

<svg xmlns="http://www.w3.org/2000/svg" width="24" height="24" fill="none" viewBox="0 0 24 24"><path fill="currentColor" d="M12 1.5c-2.482 0-4.86.878-6.75 2.468V3a.75.75 0 0 0-.75-.75.75.75 0 0 0-.75.75v3c0 .412.338.75.75.75h3c.412 0 .75-.338.75-.75a.75.75 0 0 0-.75-.75H6.053A9 9 0 0 1 12 3c4.965 0 9 4.035 9 9s-4.035 9-9 9-9-4.035-9-9a.75.75 0 0 0-.75-.75.75.75 0 0 0-.75.75c0 5.79 4.71 10.5 10.5 10.5S22.5 17.79 22.5 12 17.79 1.5 12 1.5"/><path fill="currentColor" d="M12 12.75c.24 0 .473-.12.607-.315l3.75-5.25a.745.745 0 0 0-.172-1.042.745.745 0 0 0-1.042.172l-3.526 4.935H7.5a.75.75 0 0 0-.75.75c0 .413.338.75.75.75z"/></svg>
